Newaita/actions/22/gnumeric-format-border-top-n-double-bottom.svg

<svg height="22" viewBox="0 0 22 22" width="22" xmlns="http://www.w3.org/2000/svg"><g fill="#424242"><path d="m3.636719 1.992188h14.554687c1.003906 0 1.820313.8125 1.820313 1.816406v14.554687c0 1.003907-.816407 1.820313-1.820313 1.820313h-14.554687c-1.003907 0-1.816407-.816406-1.816407-1.820313v-14.554687c0-1.003906.8125-1.816406 1.816407-1.816406zm0 0" fill-opacity=".392157"/><path d="m1.820312 10.632812h18.191407v.910157h-18.191407zm0 0"/><path d="m11.421875 1.992188v18.191406h-.960937v-18.191406zm0 0"/></g><path d="m1.820312 18.363281c0 1.007813.808594 1.820313 1.816407 1.820313h14.554687c1.007813 0 1.820313-.8125 1.820313-1.820313zm0 0" fill="#7e57c2"/><path d="m1.820312 15.636719h18.191407v.90625h-18.191407zm0 0" fill="#7e57c2"/><path d="m1.820312 3.808594c0-1.007813.808594-1.816406 1.816407-1.816406h14.554687c1.007813 0 1.820313.808593 1.820313 1.816406zm0 0" fill="#7e57c2"/></svg>

<?xml version="1.0" encoding="UTF-8"?>
<svg xmlns="http://www.w3.org/2000/svg" xmlns:xlink="http://www.w3.org/1999/xlink" width="22px" height="22px" viewBox="0 0 22 22" version="1.1">
<g id="surface1">
<path style=" stroke:none;fill-rule:nonzero;fill:rgb(25.882354%,25.882354%,25.882354%);fill-opacity:0.392157;" d="M 3.636719 1.992188 L 18.191406 1.992188 C 19.195312 1.992188 20.011719 2.804688 20.011719 3.808594 L 20.011719 18.363281 C 20.011719 19.367188 19.195312 20.183594 18.191406 20.183594 L 3.636719 20.183594 C 2.632812 20.183594 1.820312 19.367188 1.820312 18.363281 L 1.820312 3.808594 C 1.820312 2.804688 2.632812 1.992188 3.636719 1.992188 Z M 3.636719 1.992188 "/>
<path style=" stroke:none;fill-rule:nonzero;fill:rgb(25.882354%,25.882354%,25.882354%);fill-opacity:1;" d="M 1.820312 10.632812 L 20.011719 10.632812 L 20.011719 11.542969 L 1.820312 11.542969 Z M 1.820312 10.632812 "/>
<path style=" stroke:none;fill-rule:nonzero;fill:rgb(25.882354%,25.882354%,25.882354%);fill-opacity:1;" d="M 11.421875 1.992188 L 11.421875 20.183594 L 10.460938 20.183594 L 10.460938 1.992188 Z M 11.421875 1.992188 "/>
<path style=" stroke:none;fill-rule:nonzero;fill:rgb(49.411765%,34.117648%,76.078433%);fill-opacity:1;" d="M 1.820312 18.363281 C 1.820312 19.371094 2.628906 20.183594 3.636719 20.183594 L 18.191406 20.183594 C 19.199219 20.183594 20.011719 19.371094 20.011719 18.363281 Z M 1.820312 18.363281 "/>
<path style=" stroke:none;fill-rule:nonzero;fill:rgb(49.411765%,34.117648%,76.078433%);fill-opacity:1;" d="M 1.820312 15.636719 L 20.011719 15.636719 L 20.011719 16.542969 L 1.820312 16.542969 Z M 1.820312 15.636719 "/>
<path style=" stroke:none;fill-rule:nonzero;fill:rgb(49.411765%,34.117648%,76.078433%);fill-opacity:1;" d="M 1.820312 3.808594 C 1.820312 2.800781 2.628906 1.992188 3.636719 1.992188 L 18.191406 1.992188 C 19.199219 1.992188 20.011719 2.800781 20.011719 3.808594 Z M 1.820312 3.808594 "/>
</g>
</svg>
